dist/svgs/fab-uniregistry.svg

<svg xmlns="http://www.w3.org/2000/svg" viewBox="0 0 384 512"><!--! Font Awesome Free 7.1.0 by @fontawesome - https://fontawesome.com License - https://fontawesome.com/license/free (Icons: CC BY 4.0, Fonts: SIL OFL 1.1, Code: MIT License) Copyright 2025 Fonticons, Inc. --><path fill="currentColor" d="M192 480c39.5 0 76.2-11.8 106.8-32.2l-213.5 0C115.8 468.2 152.5 480 192 480zM102.9 286.9l0-12.4-102.9 0 0 12.4c0 2.5 0 5 .1 7.4l103.1 0c-.2-2.4-.3-4.9-.3-7.4zm20.5 57l-114.9 0c2.6 8.5 5.8 16.8 9.6 24.8l138.3 0c-12.9-5.7-24.1-14.2-33-24.8zm-17.7-34.7l-104.4 0c.9 7.6 2.2 15 3.9 22.3l109.7 0c-4-6.9-7.2-14.4-9.2-22.3zm-2.8-69.3l-102.9 0 0 17.3 102.9 0 0-17.3zm0-173.2l-102.9 0 0 4.9 102.9 0 0-4.9zm0-34.7l-102.9 0 0 2.5 102.9 0 0-2.5zm0 69.3l-102.9 0 0 7.4 102.9 0 0-7.4zm0 104l-102.9 0 0 14.8 102.9 0 0-14.8zm0-69.3l-102.9 0 0 9.9 102.9 0 0-9.9zm0 34.6l-102.9 0 0 12.4 102.9 0 0-12.4zM269.1 331.5l109.7 0c1.8-7.3 3.1-14.7 3.9-22.3l-104.4 0c-2.1 7.9-5.2 15.4-9.2 22.3zm12-185.7l102.9 0 0-9.8-102.9 0 0 9.8zm0 37.2l102.9 0 0-12.4-102.9 0 0 12.4zm0-74.3l102.9 0 0-7.4-102.9 0 0 7.4zm0-76.7l0 2.5 102.9 0 0-2.5-102.9 0zM78.1 442.9l227.7 0c11.8-8.7 22.7-18.6 32.2-29.7l-293.1 0c9.6 11 21.4 21 33.2 29.7zm203-371.3l102.9 0 0-4.9-102.9 0 0 4.9zm0 148.5l102.9 0 0-14.8-102.9 0 0 14.8zM38.8 405.7l305.3 0c6.7-8.5 12.6-17.6 17.8-27.2L23 378.5c5.2 9.6 9.2 18.7 15.8 27.2zm188.8-37.1l139.4 0c3.7-8 5.8-16.2 8.5-24.8l-115 0c-8.8 10.7-20.1 19.2-32.9 24.8zm53.5-81.7c0 2.5-.1 5-.4 7.4l103.1 0c.1-2.5 .2-4.9 .2-7.4l0-12.4-102.9 0 0 12.4zm0-29.7l102.9 0 0-17.3-102.9 0 0 17.3z"/></svg>

<svg xmlns="http://www.w3.org/2000/svg" viewBox="0 0 384 512"><!--! Font Awesome Free 6.7.2 by @fontawesome - https://fontawesome.com License - https://fontawesome.com/license/free (Icons: CC BY 4.0, Fonts: SIL OFL 1.1, Code: MIT License) Copyright 2024 Fonticons, Inc. --><path d="M192 480c39.5 0 76.2-11.8 106.8-32.2H85.3C115.8 468.2 152.5 480 192 480zm-89.1-193.1v-12.4H0v12.4c0 2.5 0 5 .1 7.4h103.1c-.2-2.4-.3-4.9-.3-7.4zm20.5 57H8.5c2.6 8.5 5.8 16.8 9.6 24.8h138.3c-12.9-5.7-24.1-14.2-33-24.8zm-17.7-34.7H1.3c.9 7.6 2.2 15 3.9 22.3h109.7c-4-6.9-7.2-14.4-9.2-22.3zm-2.8-69.3H0v17.3h102.9zm0-173.2H0v4.9h102.9zm0-34.7H0v2.5h102.9zm0 69.3H0v7.4h102.9zm0 104H0v14.8h102.9zm0-69.3H0v9.9h102.9zm0 34.6H0V183h102.9zm166.2 160.9h109.7c1.8-7.3 3.1-14.7 3.9-22.3H278.3c-2.1 7.9-5.2 15.4-9.2 22.3zm12-185.7H384V136H281.1zm0 37.2H384v-12.4H281.1zm0-74.3H384v-7.4H281.1zm0-76.7v2.5H384V32zm-203 410.9h227.7c11.8-8.7 22.7-18.6 32.2-29.7H44.9c9.6 11 21.4 21 33.2 29.7zm203-371.3H384v-4.9H281.1zm0 148.5H384v-14.8H281.1zM38.8 405.7h305.3c6.7-8.5 12.6-17.6 17.8-27.2H23c5.2 9.6 9.2 18.7 15.8 27.2zm188.8-37.1H367c3.7-8 5.8-16.2 8.5-24.8h-115c-8.8 10.7-20.1 19.2-32.9 24.8zm53.5-81.7c0 2.5-.1 5-.4 7.4h103.1c.1-2.5.2-4.9.2-7.4v-12.4H281.1zm0-29.7H384v-17.3H281.1z"/></svg>
